icons/layout_custom.svg

<?xml version="1.0" encoding="UTF-8" standalone="no"?>
<!-- Created with Inkscape (http://www.inkscape.org/) -->
<svg
   xmlns:svg="http://www.w3.org/2000/svg"
   xmlns="http://www.w3.org/2000/svg"
   version="1.0"
   width="64"
   height="64"
   id="svg2383">
  <defs
     id="defs2385" />
  <g
     id="layer3" />
  <g
     id="layer1"
     style="display:inline">
    <path
       d="M 10.311618,49.523523 L 3.2039982,49.469181 L 3.2039982,30.000228 L 3.2039982,10.531271 L 13.011892,10.531271 L 22.819788,10.531271 L 22.819788,30.103834 L 22.819788,49.676396 L 20.119513,49.627131 C 18.634361,49.600033 14.220809,49.553406 10.311618,49.523519 L 10.311618,49.523523 z"
       id="path2454"
       style="fill:#afdde9;fill-opacity:1;stroke:#afdde9;stroke-width:0.19863288;stroke-linecap:round;stroke-linejoin:round;stroke-miterlimit:4;stroke-dasharray:none;stroke-opacity:1" />
    <path
       d="M 42.875699,30.090909 L 42.875699,10.524329 L 52.193868,10.524329 L 61.512035,10.524329 L 61.512035,30.090909 L 61.512035,49.65749 L 52.193868,49.65749 L 42.875699,49.65749 L 42.875699,30.090909 z"
       id="path2456"
       style="fill:#37c8ab;fill-opacity:1;stroke:#37c8ab;stroke-width:0.18447354;stroke-linecap:round;stroke-linejoin:round;stroke-miterlimit:4;stroke-dasharray:none;stroke-opacity:1" />
    <path
       d="M 23.214273,28.427425 L 23.253956,10.428519 L 42.543113,10.513879 L 42.543113,30.073514 L 42.543113,49.633148 L 23.214273,49.756489 L 23.214273,28.427425 z"
       id="path2458"
       style="fill:#3771c8;fill-opacity:1;stroke:#3771c8;stroke-width:0.65668595;stroke-linecap:round;stroke-linejoin:round;stroke-miterlimit:4;stroke-dasharray:none;stroke-opacity:1" />
  </g>
  <g
     id="layer2"
     style="display:inline">
    <rect
       width="59.636364"
       height="40.545456"
       x="2.5454547"
       y="9.818182"
       id="rect2393"
       style="fill:none;fill-opacity:1;stroke:#000000;stroke-width:1.24699998;stroke-linecap:round;stroke-linejoin:round;stroke-miterlimit:4;stroke-dasharray:none;stroke-opacity:1;display:inline" />
  </g>
  <text
     x="9.69697"
     y="34"
     id="text2393"
     xml:space="preserve"
     style="font-size:12px;font-style:normal;font-weight:normal;fill:#000000;fill-opacity:1;stroke:none;stroke-width:1px;stroke-linecap:butt;stroke-linejoin:miter;stroke-opacity:1;font-family:Bitstream Vera Sans"><tspan
       x="9.69697"
       y="34"
       id="tspan2395">?</tspan></text>
  <text
     x="30.337671"
     y="34"
     id="text2397"
     xml:space="preserve"
     style="font-size:12px;font-style:normal;font-weight:normal;fill:#000000;fill-opacity:1;stroke:none;stroke-width:1px;stroke-linecap:butt;stroke-linejoin:miter;stroke-opacity:1;font-family:Bitstream Vera Sans"><tspan
       x="30.337671"
       y="34"
       id="tspan2399">?</tspan></text>
  <text
     x="50.008659"
     y="34"
     id="text2401"
     xml:space="preserve"
     style="font-size:12px;font-style:normal;font-weight:normal;fill:#000000;fill-opacity:1;stroke:none;stroke-width:1px;stroke-linecap:butt;stroke-linejoin:miter;stroke-opacity:1;font-family:Bitstream Vera Sans"><tspan
       x="50.008659"
       y="34"
       id="tspan2403">?</tspan></text>
</svg>

<?xml version="1.0" encoding="UTF-8" standalone="no"?><!-- Created with Inkscape (http://www.inkscape.org/) --><svg xmlns:svg="http://www.w3.org/2000/svg" xmlns="http://www.w3.org/2000/svg" version="1.0" width="64" height="64" id="svg2383"><g stroke-linejoin="round" stroke-linecap="round"><path d="m10.312 49.52l-7.108-.054v-19.469-19.469h9.808 9.808v19.573 19.573l-2.7-.049c-1.485-.027-5.899-.074-9.808-.104z" fill="#afdde9" stroke="#afdde9" stroke-width=".199"/><path d="m42.876 30.09v-19.567h9.318 9.318v19.567 19.567h-9.318-9.318v-19.567z" fill="#37c8ab" stroke="#37c8ab" stroke-width=".184"/><path d="m23.21 28.427l.04-17.999 19.289.085v19.56 19.56l-19.329.123v-21.329z" fill="#3771c8" stroke="#3771c8" stroke-width=".657"/><path fill="none" stroke="#000" stroke-width="1.247" d="m2.545 9.818h59.64v40.545h-59.64z"/></g><g font-family="Bitstream Vera Sans" font-size="12"><text x="9.697" y="34"><tspan x="9.697" y="34">?</tspan></text><text x="30.338" y="34"><tspan x="30.338" y="34">?</tspan></text><text x="50.01" y="34"><tspan x="50.01" y="34">?</tspan></text></g></svg>
